X: 153
T: No_86_The_Waters_of_the_Spirits.krn
N: Derived from No_86_The_Waters_of_the_Spirits.krn
%%abc-version 2.0
%%abcx-abcm2ps-target-version 5.9.1 (29 Sep 2008)
%%abc-creator hum2abc beta
%%abcx-conversion-date 2019/03/15 08:37:56
%%humdrum-veritas 1682682292
%%humdrum-veritas-data 3171072691
%%linebreak <none>
%%barnumbers 0
L: 1/8
M: 5/8
K: Ab clef=bass
[K:clef=bass][M:5/8]F,F,F,DD ||  
[M:2/4]D2B,/ z/ C ||  
[M:5/8]CB,B,B,B, ||  
[M:2/4]F,2D,2 ||  
[M:5/8]F,2G,F,G, ||  
[M:2/4]F,2D,/ z/ F, | 
F,2D,/ z/ F, | 
F,F, F,F, ||  
[M:3/4]F,2z2B,B, ||  
[M:3/8]C3/B,/C | 
CB,B, ||  
[M:3/4]B,4(3:2:4B,G,/ z/ B, ||  
[M:2/4]B,B, B,B, | 
F,F,D,2 ||  
[M:5/8]F,2G,F,G, ||  
[M:2/4]F,F, D,/ z/ F, | 
F,F, D,/ z/ F, | 
F,F, F,F, ||  
F,4 :|]  



